packages/ui-icons/svg/Line/mature-light.svg

<svg viewBox="0 0 1920 1920" version="1.1" xmlns="http://www.w3.org/2000/svg">
    <path d="M997.35716,948.306842 C997.35716,948.193981 997.244298,948.081119 997.244298,947.968258 L997.35716,948.306842 Z M136.901011,505.212556 L449.753115,1749.28498 L661.029861,1696.1272 L448.285916,850.23019 L628.300024,804.859864 L1001.42017,1610.46532 L1231.43193,1552.56736 L1178.95133,666.378791 L1359.19116,621.008465 L1571.9351,1467.01834 L1783.09899,1413.86057 L1470.13402,169.78815 L1008.30473,286.035504 L1034.60146,962.978838 C1036.06866,998.191629 1013.38349,1028.88996 979.41218,1037.35457 C945.553727,1045.70632 911.130966,1029.45427 895.894663,997.51446 L598.84317,389.078063 L136.901011,505.212556 Z M367.81566,1886.18599 L0,423.2751 L660.126969,257.255819 L914.516812,778.45027 L891.831648,198.906419 L1552.18434,33 L1920,1495.79802 L1489.88479,1603.91935 L1303.6633,863.209264 L1349.59793,1639.245 L938.443452,1742.73901 L611.59652,1037.24171 L797.818011,1778.06466 L367.81566,1886.18599 Z" stroke="none" stroke-width="1" fill-rule="evenodd"/>
</svg>

<svg viewBox="0 0 1920 1920" xmlns="http://www.w3.org/2000/svg">
    <path d="M997.357 948.307c0-.113-.113-.226-.113-.339l.113.339ZM136.901 505.213l312.852 1244.072 211.277-53.158L448.286 850.23 628.3 804.86l373.12 805.605 230.012-57.898-52.48-886.188 180.24-45.37 212.743 846.01 211.164-53.158-312.965-1244.073-461.83 116.248 26.297 676.943c1.468 35.213-21.218 65.911-55.189 74.376-33.858 8.351-68.281-7.9-83.517-39.84L598.843 389.077 136.901 505.213Zm230.915 1380.973L0 423.276l660.127-166.02 254.39 521.194-22.685-579.544L1552.184 33 1920 1495.798l-430.115 108.121-186.222-740.71 45.935 776.036-411.155 103.494-326.846-705.497 186.221 740.823-430.002 108.121Z" fill-rule="evenodd"/>
</svg>
